assets/svg/online_converter.svg

<svg xmlns="http://www.w3.org/2000/svg" width="50" height="50" fill="none" viewBox="0 0 50 50"><defs><linearGradient id="a" x1="128.863" x2="225.857" y1="351.291" y2="351.291" gradientUnits="userSpaceOnUse"><stop stop-color="#9d9fa2"/><stop offset="1" stop-color="#d1d2d3"/></linearGradient><linearGradient id="b" x1="135.712" x2="217.944" y1="341.82" y2="341.82" gradientUnits="userSpaceOnUse"><stop stop-color="#169b48"/><stop offset="1" stop-color="#51b848"/></linearGradient></defs><path fill="url(#a)" d="M0 0h50v50H0z"/><path fill="#51b848" d="M4.444 4.444h41.111v41.111H4.444z"/><path fill="url(#b)" d="M4.44 4.44h41.11v10.43c-3.38 6.12-12.69 5-12.69 5-25.25.58-28.42 16.27-28.42 16.27z"/><path fill="#000" d="M29.92 41.9s4.19-1.38 5.78-1.4c0 0 5.11-1.84 7.41-.24.86.38 1.69.83 2.44 1.45v3.84H4.44v-2.16s8.08-3.4 12.08-.52c0 0 .38-.09.79-.36 0 0 2.05-1.82 4.09-1.44 2.03.37 4.91 1.26 4.91 1.26s1.95-.92 3.58-.7z"/><path d="M35.7 40.5s5.11-1.84 7.41-.24c.86.38 1.69.83 2.44 1.45v3.84H4.44v-2.16s8.08-3.4 12.08-.52c0 0 .38-.09.79-.36 0 0 2.05-1.82 4.09-1.44 2.03.37 4.91 1.26 4.91 1.26s1.95-.92 3.58-.7l.03.27s4.19-1.38 5.78-1.4"/><path fill="#000" d="M20.58 5.58c-.11-.31-.34-.14-.34-.14-.05-.15-.37-.04-.37-.04-.14-.2-.36.04-.36.04-.1-.14-.3 0-.3 0-.3.16-.15.58-.15.58-.3.04-.17.71-.17.71-.06.23-.04.32-.04.32.01.3.21.43-.07 1.26-.27.83-.34 2.08-.33 2.46 0 .37.02.98.02.98l1.42 2.33-.07.52c.12.11 1.47 2.44 1.47 2.44l.05 2.9.02 1.05s-.03 1.07-.04 1.31c-.02.24-.13.98-.13.98-.32 1.16-.06 1.13-.06 1.13.39-.01-.07.55-.07.55l-3.14 4.47c-.04.06-.85 1.26-1.05 1.62-.2.35-.92 1.66-.92 1.66l-.63 1.33s-.64 1.57-.62 1.64c.02.08-.18.62-.18.62l-.98 2.25c-.15.26-.11.87-.11.87-.07.16-.75.74-.75.74 0 .28-.17.51-.17.51l-.41.39c-.29.44-1.33.47-1.68.5s-.55.52-.55.52c.07.66.31.52.31.52l4.93.21s.07-.27.02-.39c-.06-.12.02-.53.02-.53s.48-1.08.54-1.26c.06-.17.34-1.19.34-1.19l.43-.85.46-.97.21-.53.14-.27c.09-.33 1.2-1.94 1.25-2.11.04-.17 1.01-1.71 1.01-1.71.15-.38 1.45-1.93 1.45-1.93.1-.26 1.53-1.62 1.53-1.62s1.42-1.42 1.54-1.52c.13-.09.47-.06.47-.06.47-.15 2.09 2.55 2.09 2.55s1.22 2.38 1.34 2.61.19.76.19.76l.18.56c-.06.12.1.42.1.42l-.04.43s.28 2.09.2 2.3c-.09.21.31 2.41.31 2.41-.22.72-.15 1.95-.15 1.95l-.28.1.11.12c-.09.43.06.33.06.33s5.82-.72 6.01-.74c.18-.03.27-.3.27-.3s0-.46-.06-.62c-.07-.16-.4-.37-.78-.36-.39.01-1.16-.19-1.16-.19-.27-.02-.38-.12-.7-.27-.32-.16-.78-1.04-.87-1.21-.09-.18-.17-1.92-.17-1.92-.01-.14-.11-1.87-.11-1.87s-.06-.62-.07-.88c0-.27.09-.72.09-.72l-.1-1.3c-.09-.07-.83-2.61-.83-2.61-.11-.62-1.04-2.44-1.04-2.44-.03-.15-.35-.66-.35-.66 0-.07-.31-.77-.31-.77.02-.08-.27-.67-.27-.67s.19-.54.12-.54c-.06 0-.14-.36-.14-.36l.38-3.18.21-1.55s.13-.41.27-.41.77-.28.77-.28.44-.17.5-.21c.06-.03.59-.12.79-.15.19-.04.17-.59.17-.59 1.96-.47 3.09-1 3.09-1s.4-.93.48-.95c.07-.03.45-.91.54-1.18.08-.26.54-1.65.54-1.65l.13-.26s.15-.35.24-.42c.09-.08.24-.53.24-.53.07-.12.01-.33.01-.33.05-.48-.29-.48-.29-.48 0-.26-.25-.16-.28-.26s-.11-.13-.16-.05c-.04.07-.23.01-.23.01-.23-.15-.35.01-.35.01s-.5.71-.35.82c.14.11.11.7.11.7-.06.59-.72 1.86-.72 1.86l-.44.63c-.21.4-1.17 1.23-1.17 1.23-.12-.07-.85-.01-.85-.01s-.58.08-.71.08-.67.07-.67.07-.28.08-.37.03-.38-.08-.56-.15c-.18-.06-.68-.13-.68-.13l-.39.03c-.43-.23-.63.03-.63.03l-.23.04s-.11 0-.23-.01c-.13 0-.11-.22-.11-.22l-.38-.17-.12-.17c-.03-.37.46-1.5.46-1.5.21 0 .29-.12.27-.21s.05-.24.05-.24c.19-.43.03-.46.03-.46l-.04-.16c.08-.14.05-.83.05-.83-.1-.93-1.28-1.32-2.12-1.06-.83.26-.86 1.55-.86 1.55-.07-.04-.18.24-.18.24-.09.08-.01.7-.01.7.15.23.28.11.28.11l.12.75s-.13.7-.26.89c-.13.2-.38.2-.38.2-.17-.53-1.09-.8-1.09-.8l-.48-.22c-.03-.1-.2-.18-.2-.18-.25-.02-.31-.05-.51-.45s-.41-.42-.41-.42l-.28-.37-.12-.04c.02-.08-.55-.7-.55-.7-.23-.08-.29-.41-.29-.41.05-.35-.27-1.82-.27-1.82l-.03-.57s-.02-.7.04-.92c.07-.21.1-1.06.1-1.06l.11-.25s.09-.19.26-.3c.16-.11.28-.26.31-.38s-.04-.43-.04-.43z"/><path stroke="#000" stroke-width=".218" d="M20.24 5.44c-.05-.15-.37-.04-.37-.04-.14-.2-.36.04-.36.04-.1-.14-.3 0-.3 0-.3.16-.15.58-.15.58-.3.04-.17.71-.17.71-.06.23-.04.32-.04.32.01.3.21.43-.07 1.26-.27.83-.34 2.08-.33 2.46 0 .37.02.98.02.98l1.42 2.33-.07.52c.12.11 1.47 2.44 1.47 2.44l.05 2.9.02 1.05s-.03 1.07-.04 1.31c-.02.24-.13.98-.13.98-.32 1.16-.06 1.13-.06 1.13.39-.01-.07.55-.07.55l-3.14 4.47c-.04.06-.85 1.26-1.05 1.62-.2.35-.92 1.66-.92 1.66l-.63 1.33s-.64 1.57-.62 1.64c.02.08-.18.62-.18.62l-.98 2.25c-.15.26-.11.87-.11.87-.07.16-.75.74-.75.74 0 .28-.17.51-.17.51l-.41.39c-.29.44-1.33.47-1.68.5s-.55.52-.55.52c.07.66.31.52.31.52l4.93.21s.07-.27.02-.39c-.06-.12.02-.53.02-.53s.48-1.08.54-1.26c.06-.17.34-1.19.34-1.19l.43-.85.46-.97.21-.53.14-.27c.09-.33 1.2-1.94 1.25-2.11.04-.17 1.01-1.71 1.01-1.71.15-.38 1.45-1.93 1.45-1.93.1-.26 1.53-1.62 1.53-1.62s1.42-1.42 1.54-1.52c.13-.09.47-.06.47-.06.47-.15 2.09 2.55 2.09 2.55s1.22 2.38 1.34 2.61.19.76.19.76l.18.56c-.06.12.1.42.1.42l-.04.43s.28 2.09.2 2.3c-.09.21.31 2.41.31 2.41-.22.72-.15 1.95-.15 1.95l-.28.1.11.12c-.09.43.06.33.06.33s5.82-.72 6.01-.74c.18-.03.27-.3.27-.3s0-.46-.06-.62c-.07-.16-.4-.37-.78-.36-.39.01-1.16-.19-1.16-.19-.27-.02-.38-.12-.7-.27-.32-.16-.78-1.04-.87-1.21-.09-.18-.17-1.92-.17-1.92-.01-.14-.11-1.87-.11-1.87s-.06-.62-.07-.88c0-.27.09-.72.09-.72l-.1-1.3c-.09-.07-.83-2.61-.83-2.61-.11-.62-1.04-2.44-1.04-2.44-.03-.15-.35-.66-.35-.66 0-.07-.31-.77-.31-.77.02-.08-.27-.67-.27-.67s.19-.54.12-.54c-.06 0-.14-.36-.14-.36l.38-3.18.21-1.55s.13-.41.27-.41.77-.28.77-.28.44-.17.5-.21c.06-.03.59-.12.79-.15.19-.04.17-.59.17-.59 1.96-.47 3.09-1 3.09-1s.4-.93.48-.95c.07-.03.45-.91.54-1.18.08-.26.54-1.65.54-1.65l.13-.26s.15-.35.24-.42c.09-.08.24-.53.24-.53.07-.12.01-.33.01-.33.05-.48-.29-.48-.29-.48 0-.26-.25-.16-.28-.26s-.11-.13-.16-.05c-.04.07-.23.01-.23.01-.23-.15-.35.01-.35.01s-.5.71-.35.82c.14.11.11.7.11.7-.06.59-.72 1.86-.72 1.86l-.44.63c-.21.4-1.17 1.23-1.17 1.23-.12-.07-.85-.01-.85-.01s-.58.08-.71.08-.67.07-.67.07-.28.08-.37.03-.38-.08-.56-.15c-.18-.06-.68-.13-.68-.13l-.39.03c-.43-.23-.63.03-.63.03l-.23.04s-.11 0-.23-.01c-.13 0-.11-.22-.11-.22l-.38-.17-.12-.17c-.03-.37.46-1.5.46-1.5.21 0 .29-.12.27-.21s.05-.24.05-.24c.19-.43.03-.46.03-.46l-.04-.16c.08-.14.05-.83.05-.83-.1-.93-1.28-1.32-2.12-1.06-.83.26-.86 1.55-.86 1.55-.07-.04-.18.24-.18.24-.09.08-.01.7-.01.7.15.23.28.11.28.11l.12.75s-.13.7-.26.89c-.13.2-.38.2-.38.2-.17-.53-1.09-.8-1.09-.8l-.48-.22c-.03-.1-.2-.18-.2-.18-.25-.02-.31-.05-.51-.45s-.41-.42-.41-.42l-.28-.37-.12-.04c.02-.08-.55-.7-.55-.7-.23-.08-.29-.41-.29-.41.05-.35-.27-1.82-.27-1.82l-.03-.57s-.02-.7.04-.92c.07-.21.1-1.06.1-1.06l.11-.25s.09-.19.26-.3c.16-.11.28-.26.31-.38s-.04-.43-.04-.43l-.09-.26c-.11-.31-.34-.14-.34-.14Z"/></svg>

<svg width="50.000000" height="50.000000" viewBox="0 0 50 50" fill="none" xmlns="http://www.w3.org/2000/svg" xmlns:xlink="http://www.w3.org/1999/xlink">
	<desc>
			Created with Pixso.
	</desc>
	<defs>
		<linearGradient x1="128.863434" y1="351.291260" x2="225.856674" y2="351.291260" id="paint_linear_392_79_0" gradientUnits="userSpaceOnUse">
			<stop stop-color="#9D9FA2"/>
			<stop offset="1.000000" stop-color="#D1D2D3"/>
		</linearGradient>
		<linearGradient x1="135.711807" y1="341.819794" x2="217.943802" y2="341.819794" id="paint_linear_392_83_0" gradientUnits="userSpaceOnUse">
			<stop stop-color="#169B48"/>
			<stop offset="1.000000" stop-color="#51B848"/>
		</linearGradient>
	</defs>
	<rect id="rect314-9-8" width="50.000004" height="50.000004" fill="url(#paint_linear_392_79_0)" fill-opacity="1.000000"/>
	<rect id="rect318-2-5" x="4.444458" y="4.444336" width="41.111115" height="41.111118" fill="#51B848" fill-opacity="1.000000"/>
	<path id="path325-8-3" d="M4.44 4.44L45.55 4.44L45.55 14.87C42.17 20.99 32.86 19.87 32.86 19.87C7.61 20.45 4.44 36.14 4.44 36.14L4.44 4.44Z" fill="url(#paint_linear_392_83_0)" fill-opacity="1.000000" fill-rule="nonzero"/>
	<path id="path327-3-2" d="" fill="#000000" fill-opacity="0" fill-rule="nonzero"/>
	<path id="path327-3-2" d="" stroke="#000000" stroke-opacity="1.000000" stroke-width="0.512219"/>
	<path id="path331-2-8" d="M29.92 41.9C29.92 41.9 34.11 40.52 35.7 40.5C35.7 40.5 40.81 38.66 43.11 40.26C43.97 40.64 44.8 41.09 45.55 41.71L45.55 45.55L4.44 45.55L4.44 43.39C4.44 43.39 12.52 39.99 16.52 42.87C16.52 42.87 16.9 42.78 17.31 42.51C17.31 42.51 19.36 40.69 21.4 41.07C23.43 41.44 26.31 42.33 26.31 42.33C26.31 42.33 28.26 41.41 29.89 41.63L29.92 41.9Z" fill="#000000" fill-opacity="1.000000" fill-rule="nonzero"/>
	<path id="path331-2-8" d="M35.7 40.5C35.7 40.5 40.81 38.66 43.11 40.26C43.97 40.64 44.8 41.09 45.55 41.71L45.55 45.55L4.44 45.55L4.44 43.39C4.44 43.39 12.52 39.99 16.52 42.87C16.52 42.87 16.9 42.78 17.31 42.51C17.31 42.51 19.36 40.69 21.4 41.07C23.43 41.44 26.31 42.33 26.31 42.33C26.31 42.33 28.26 41.41 29.89 41.63L29.92 41.9C29.92 41.9 34.11 40.52 35.7 40.5Z" stroke="#000000" stroke-opacity="0" stroke-width="0.000000"/>
	<path id="path333-2-3" d="M20.58 5.58C20.47 5.27 20.24 5.44 20.24 5.44C20.19 5.29 19.87 5.4 19.87 5.4C19.73 5.2 19.51 5.44 19.51 5.44C19.41 5.3 19.21 5.44 19.21 5.44C18.91 5.6 19.06 6.02 19.06 6.02C18.76 6.06 18.89 6.73 18.89 6.73C18.83 6.96 18.85 7.05 18.85 7.05C18.86 7.35 19.06 7.48 18.78 8.31C18.51 9.14 18.44 10.39 18.45 10.77C18.45 11.14 18.47 11.75 18.47 11.75L19.89 14.08L19.82 14.6C19.94 14.71 21.29 17.04 21.29 17.04L21.34 19.94L21.36 20.99C21.36 20.99 21.33 22.06 21.32 22.3C21.3 22.54 21.19 23.28 21.19 23.28C20.87 24.44 21.13 24.41 21.13 24.41C21.52 24.4 21.06 24.96 21.06 24.96L17.92 29.43C17.88 29.49 17.07 30.69 16.87 31.05C16.67 31.4 15.95 32.71 15.95 32.71L15.32 34.04C15.32 34.04 14.68 35.61 14.7 35.68C14.72 35.76 14.52 36.3 14.52 36.3L13.54 38.55C13.39 38.81 13.43 39.42 13.43 39.42C13.36 39.58 12.68 40.16 12.68 40.16C12.68 40.44 12.51 40.67 12.51 40.67L12.1 41.06C11.81 41.5 10.77 41.53 10.42 41.56C10.07 41.59 9.87 42.08 9.87 42.08C9.94 42.74 10.18 42.6 10.18 42.6L15.11 42.81C15.11 42.81 15.18 42.54 15.13 42.42C15.07 42.3 15.15 41.89 15.15 41.89C15.15 41.89 15.63 40.81 15.69 40.63C15.75 40.46 16.03 39.44 16.03 39.44L16.46 38.59L16.92 37.62L17.13 37.09L17.27 36.82C17.36 36.49 18.47 34.88 18.52 34.71C18.56 34.54 19.53 33 19.53 33C19.68 32.62 20.98 31.07 20.98 31.07C21.08 30.81 22.51 29.45 22.51 29.45C22.51 29.45 23.93 28.03 24.05 27.93C24.18 27.84 24.52 27.87 24.52 27.87C24.99 27.72 26.61 30.42 26.61 30.42C26.61 30.42 27.83 32.8 27.95 33.03C28.07 33.26 28.14 33.79 28.14 33.79L28.32 34.35C28.26 34.47 28.42 34.77 28.42 34.77L28.38 35.2C28.38 35.2 28.66 37.29 28.58 37.5C28.49 37.71 28.89 39.91 28.89 39.91C28.67 40.63 28.74 41.86 28.74 41.86L28.46 41.96L28.57 42.08C28.48 42.51 28.63 42.41 28.63 42.41C28.63 42.41 34.45 41.69 34.64 41.67C34.82 41.64 34.91 41.37 34.91 41.37C34.91 41.37 34.91 40.91 34.85 40.75C34.78 40.59 34.45 40.38 34.07 40.39C33.68 40.4 32.91 40.2 32.91 40.2C32.64 40.18 32.53 40.08 32.21 39.93C31.89 39.77 31.43 38.89 31.34 38.72C31.25 38.54 31.17 36.8 31.17 36.8C31.16 36.66 31.06 34.93 31.06 34.93C31.06 34.93 31 34.31 30.99 34.05C30.99 33.78 31.08 33.33 31.08 33.33L30.98 32.03C30.89 31.96 30.15 29.42 30.15 29.42C30.04 28.8 29.11 26.98 29.11 26.98C29.08 26.83 28.76 26.32 28.76 26.32C28.76 26.25 28.45 25.55 28.45 25.55C28.47 25.47 28.18 24.88 28.18 24.88C28.18 24.88 28.37 24.34 28.3 24.34C28.24 24.34 28.16 23.98 28.16 23.98L28.54 20.8L28.75 19.25C28.75 19.25 28.88 18.84 29.02 18.84C29.16 18.84 29.79 18.56 29.79 18.56C29.79 18.56 30.23 18.39 30.29 18.35C30.35 18.32 30.88 18.23 31.08 18.2C31.27 18.16 31.25 17.61 31.25 17.61C33.21 17.14 34.34 16.61 34.34 16.61C34.34 16.61 34.74 15.68 34.82 15.66C34.89 15.63 35.27 14.75 35.36 14.48C35.44 14.22 35.9 12.83 35.9 12.83L36.03 12.57C36.03 12.57 36.18 12.22 36.27 12.15C36.36 12.07 36.51 11.62 36.51 11.62C36.58 11.5 36.52 11.29 36.52 11.29C36.57 10.81 36.23 10.81 36.23 10.81C36.23 10.55 35.98 10.65 35.95 10.55C35.92 10.45 35.84 10.42 35.79 10.5C35.75 10.57 35.56 10.51 35.56 10.51C35.33 10.36 35.21 10.52 35.21 10.52C35.21 10.52 34.71 11.23 34.86 11.34C35 11.45 34.97 12.04 34.97 12.04C34.91 12.63 34.25 13.9 34.25 13.9L33.81 14.53C33.6 14.93 32.64 15.76 32.64 15.76C32.52 15.69 31.79 15.75 31.79 15.75C31.79 15.75 31.21 15.83 31.08 15.83C30.95 15.83 30.41 15.9 30.41 15.9C30.41 15.9 30.13 15.98 30.04 15.93C29.95 15.88 29.66 15.85 29.48 15.78C29.3 15.72 28.8 15.65 28.8 15.65L28.41 15.68C27.98 15.45 27.78 15.71 27.78 15.71L27.55 15.75C27.55 15.75 27.44 15.75 27.32 15.74C27.19 15.74 27.21 15.52 27.21 15.52L26.83 15.35L26.71 15.18C26.68 14.81 27.17 13.68 27.17 13.68C27.38 13.68 27.46 13.56 27.44 13.47C27.42 13.38 27.49 13.23 27.49 13.23C27.68 12.8 27.52 12.77 27.52 12.77L27.48 12.61C27.56 12.47 27.53 11.78 27.53 11.78C27.43 10.85 26.25 10.46 25.41 10.72C24.58 10.98 24.55 12.27 24.55 12.27C24.48 12.23 24.37 12.51 24.37 12.51C24.28 12.59 24.36 13.21 24.36 13.21C24.51 13.44 24.64 13.32 24.64 13.32L24.76 14.07C24.76 14.07 24.63 14.77 24.5 14.96C24.37 15.16 24.12 15.16 24.12 15.16C23.95 14.63 23.03 14.36 23.03 14.36L22.55 14.14C22.52 14.04 22.35 13.96 22.35 13.96C22.1 13.94 22.04 13.91 21.84 13.51C21.64 13.11 21.43 13.09 21.43 13.09L21.15 12.72L21.03 12.68C21.05 12.6 20.48 11.98 20.48 11.98C20.25 11.9 20.19 11.57 20.19 11.57C20.24 11.22 19.92 9.75 19.92 9.75L19.89 9.18C19.89 9.18 19.87 8.48 19.93 8.26C20 8.05 20.03 7.2 20.03 7.2L20.14 6.95C20.14 6.95 20.23 6.76 20.4 6.65C20.56 6.54 20.68 6.39 20.71 6.27C20.74 6.15 20.67 5.84 20.67 5.84L20.58 5.58Z" fill="#000000" fill-opacity="1.000000" fill-rule="nonzero"/>
	<path id="path333-2-3" d="M20.24 5.44C20.19 5.29 19.87 5.4 19.87 5.4C19.73 5.2 19.51 5.44 19.51 5.44C19.41 5.3 19.21 5.44 19.21 5.44C18.91 5.6 19.06 6.02 19.06 6.02C18.76 6.06 18.89 6.73 18.89 6.73C18.83 6.96 18.85 7.05 18.85 7.05C18.86 7.35 19.06 7.48 18.78 8.31C18.51 9.14 18.44 10.39 18.45 10.77C18.45 11.14 18.47 11.75 18.47 11.75L19.89 14.08L19.82 14.6C19.94 14.71 21.29 17.04 21.29 17.04L21.34 19.94L21.36 20.99C21.36 20.99 21.33 22.06 21.32 22.3C21.3 22.54 21.19 23.28 21.19 23.28C20.87 24.44 21.13 24.41 21.13 24.41C21.52 24.4 21.06 24.96 21.06 24.96L17.92 29.43C17.88 29.49 17.07 30.69 16.87 31.05C16.67 31.4 15.95 32.71 15.95 32.71L15.32 34.04C15.32 34.04 14.68 35.61 14.7 35.68C14.72 35.76 14.52 36.3 14.52 36.3L13.54 38.55C13.39 38.81 13.43 39.42 13.43 39.42C13.36 39.58 12.68 40.16 12.68 40.16C12.68 40.44 12.51 40.67 12.51 40.67L12.1 41.06C11.81 41.5 10.77 41.53 10.42 41.56C10.07 41.59 9.87 42.08 9.87 42.08C9.94 42.74 10.18 42.6 10.18 42.6L15.11 42.81C15.11 42.81 15.18 42.54 15.13 42.42C15.07 42.3 15.15 41.89 15.15 41.89C15.15 41.89 15.63 40.81 15.69 40.63C15.75 40.46 16.03 39.44 16.03 39.44L16.46 38.59L16.92 37.62L17.13 37.09L17.27 36.82C17.36 36.49 18.47 34.88 18.52 34.71C18.56 34.54 19.53 33 19.53 33C19.68 32.62 20.98 31.07 20.98 31.07C21.08 30.81 22.51 29.45 22.51 29.45C22.51 29.45 23.93 28.03 24.05 27.93C24.18 27.84 24.52 27.87 24.52 27.87C24.99 27.72 26.61 30.42 26.61 30.42C26.61 30.42 27.83 32.8 27.95 33.03C28.07 33.26 28.14 33.79 28.14 33.79L28.32 34.35C28.26 34.47 28.42 34.77 28.42 34.77L28.38 35.2C28.38 35.2 28.66 37.29 28.58 37.5C28.49 37.71 28.89 39.91 28.89 39.91C28.67 40.63 28.74 41.86 28.74 41.86L28.46 41.96L28.57 42.08C28.48 42.51 28.63 42.41 28.63 42.41C28.63 42.41 34.45 41.69 34.64 41.67C34.82 41.64 34.91 41.37 34.91 41.37C34.91 41.37 34.91 40.91 34.85 40.75C34.78 40.59 34.45 40.38 34.07 40.39C33.68 40.4 32.91 40.2 32.91 40.2C32.64 40.18 32.53 40.08 32.21 39.93C31.89 39.77 31.43 38.89 31.34 38.72C31.25 38.54 31.17 36.8 31.17 36.8C31.16 36.66 31.06 34.93 31.06 34.93C31.06 34.93 31 34.31 30.99 34.05C30.99 33.78 31.08 33.33 31.08 33.33L30.98 32.03C30.89 31.96 30.15 29.42 30.15 29.42C30.04 28.8 29.11 26.98 29.11 26.98C29.08 26.83 28.76 26.32 28.76 26.32C28.76 26.25 28.45 25.55 28.45 25.55C28.47 25.47 28.18 24.88 28.18 24.88C28.18 24.88 28.37 24.34 28.3 24.34C28.24 24.34 28.16 23.98 28.16 23.98L28.54 20.8L28.75 19.25C28.75 19.25 28.88 18.84 29.02 18.84C29.16 18.84 29.79 18.56 29.79 18.56C29.79 18.56 30.23 18.39 30.29 18.35C30.35 18.32 30.88 18.23 31.08 18.2C31.27 18.16 31.25 17.61 31.25 17.61C33.21 17.14 34.34 16.61 34.34 16.61C34.34 16.61 34.74 15.68 34.82 15.66C34.89 15.63 35.27 14.75 35.36 14.48C35.44 14.22 35.9 12.83 35.9 12.83L36.03 12.57C36.03 12.57 36.18 12.22 36.27 12.15C36.36 12.07 36.51 11.62 36.51 11.62C36.58 11.5 36.52 11.29 36.52 11.29C36.57 10.81 36.23 10.81 36.23 10.81C36.23 10.55 35.98 10.65 35.95 10.55C35.92 10.45 35.84 10.42 35.79 10.5C35.75 10.57 35.56 10.51 35.56 10.51C35.33 10.36 35.21 10.52 35.21 10.52C35.21 10.52 34.71 11.23 34.86 11.34C35 11.45 34.97 12.04 34.97 12.04C34.91 12.63 34.25 13.9 34.25 13.9L33.81 14.53C33.6 14.93 32.64 15.76 32.64 15.76C32.52 15.69 31.79 15.75 31.79 15.75C31.79 15.75 31.21 15.83 31.08 15.83C30.95 15.83 30.41 15.9 30.41 15.9C30.41 15.9 30.13 15.98 30.04 15.93C29.95 15.88 29.66 15.85 29.48 15.78C29.3 15.72 28.8 15.65 28.8 15.65L28.41 15.68C27.98 15.45 27.78 15.71 27.78 15.71L27.55 15.75C27.55 15.75 27.44 15.75 27.32 15.74C27.19 15.74 27.21 15.52 27.21 15.52L26.83 15.35L26.71 15.18C26.68 14.81 27.17 13.68 27.17 13.68C27.38 13.68 27.46 13.56 27.44 13.47C27.42 13.38 27.49 13.23 27.49 13.23C27.68 12.8 27.52 12.77 27.52 12.77L27.48 12.61C27.56 12.47 27.53 11.78 27.53 11.78C27.43 10.85 26.25 10.46 25.41 10.72C24.58 10.98 24.55 12.27 24.55 12.27C24.48 12.23 24.37 12.51 24.37 12.51C24.28 12.59 24.36 13.21 24.36 13.21C24.51 13.44 24.64 13.32 24.64 13.32L24.76 14.07C24.76 14.07 24.63 14.77 24.5 14.96C24.37 15.16 24.12 15.16 24.12 15.16C23.95 14.63 23.03 14.36 23.03 14.36L22.55 14.14C22.52 14.04 22.35 13.96 22.35 13.96C22.1 13.94 22.04 13.91 21.84 13.51C21.64 13.11 21.43 13.09 21.43 13.09L21.15 12.72L21.03 12.68C21.05 12.6 20.48 11.98 20.48 11.98C20.25 11.9 20.19 11.57 20.19 11.57C20.24 11.22 19.92 9.75 19.92 9.75L19.89 9.18C19.89 9.18 19.87 8.48 19.93 8.26C20 8.05 20.03 7.2 20.03 7.2L20.14 6.95C20.14 6.95 20.23 6.76 20.4 6.65C20.56 6.54 20.68 6.39 20.71 6.27C20.74 6.15 20.67 5.84 20.67 5.84L20.58 5.58C20.47 5.27 20.24 5.44 20.24 5.44Z" stroke="#000000" stroke-opacity="1.000000" stroke-width="0.218101"/>
</svg>
